X: 20099
T: Jimmy Ward's
R: jig
M: 6/8
K: Gmajor
|:~d3 def|edB dBA|ddd edB|dBA ABc|
~d3 def|edB def|gfe fdB|1 ABA ABc:|2 ABA A2f||
|:g2e f2d|~e3 edB|gfe fdB|Ace Aef|
g2e f2d|~e3 efg|agf edB|1 dBA A2f:|2 dBA ABc||

